icons/crying.svg

<svg width="48" height="48" viewBox="0 0 48 48" fill="none" xmlns="http://www.w3.org/2000/svg">
<path d="M31.4245 38.1768C29.2056 39.3412 26.6798 40 24 40C15.1634 40 8 32.8366 8 24C8 15.1634 15.1634 8 24 8C32.8366 8 40 15.1634 40 24C40 24.1673 39.9974 24.334 39.9923 24.5H41.9932C41.9977 24.3339 42 24.1672 42 24C42 14.0589 33.9411 6 24 6C14.0589 6 6 14.0589 6 24C6 33.9411 14.0589 42 24 42C27.0254 42 29.8764 41.2536 32.379 39.935L31.4245 38.1768Z" fill="black"/>
<path d="M13.7428 23.3502C13.6237 24.0879 14.1242 24.7954 14.8073 25.2328C15.521 25.69 16.5386 25.9399 17.737 25.763C18.983 25.5791 19.8685 24.8878 20.3905 24.0976C20.8948 23.3341 21.1024 22.4047 20.8707 21.7159C20.8163 21.5541 20.6831 21.4312 20.5174 21.39C20.3517 21.3489 20.1764 21.3951 20.0526 21.5127C18.2567 23.2174 16.2287 23.6362 14.4105 22.9611C14.2702 22.909 14.114 22.9225 13.9847 22.9979C13.8554 23.0732 13.7667 23.2025 13.7428 23.3502Z" fill="black"/>
<path d="M33.8187 23.3502C33.9377 24.0879 33.4373 24.7954 32.7542 25.2328C32.0404 25.69 31.0229 25.9399 29.8244 25.763C28.5785 25.5791 27.693 24.8878 27.171 24.0976C26.6666 23.3341 26.459 22.4047 26.6907 21.7159C26.7452 21.5541 26.8784 21.4312 27.0441 21.39C27.2098 21.3489 27.3851 21.3951 27.5089 21.5127C29.3048 23.2174 31.3327 23.6362 33.151 22.9611C33.2913 22.909 33.4475 22.9225 33.5768 22.9979C33.7061 23.0732 33.7948 23.2025 33.8187 23.3502Z" fill="black"/>
<path fill-rule="evenodd" clip-rule="evenodd" d="M36 36C38.2091 36 40 34.2091 40 32C40 28.5 36 25 36 25C36 25 32 28.5 32 32C32 34.2091 33.7909 36 36 36ZM36 34C37.1046 34 38 33.1046 38 32C38 30.9336 37.3464 29.6298 36.4091 28.3996C36.272 28.2196 36.1345 28.0486 36 27.888C35.8655 28.0486 35.728 28.2196 35.5909 28.3996C34.6536 29.6298 34 30.9336 34 32C34 33.1046 34.8954 34 36 34Z" fill="black"/>
<path d="M20.8 33.6C22.4 31.4667 25.6 31.4667 27.2 33.6C27.5314 34.0418 28.1582 34.1314 28.6 33.8C29.0418 33.4686 29.1314 32.8418 28.8 32.4C26.4 29.2 21.6 29.2 19.2 32.4C18.8686 32.8418 18.9582 33.4686 19.4 33.8C19.8418 34.1314 20.4686 34.0418 20.8 33.6Z" fill="black"/>
</svg>

<svg
  xmlns="http://www.w3.org/2000/svg"
  width="24"
  height="24"
  viewBox="0 0 24 24"
  fill="none"
  stroke="currentColor"
  stroke-width="2"
  stroke-linecap="round"
  stroke-linejoin="round"
>
  <path d="M31.425 38.177A15.9 15.9 0 0 1 24 40c-8.837 0-16-7.163-16-16S15.163 8 24 8s16 7.163 16 16q0 .25-.008.5h2.001Q42 24.25 42 24c0-9.941-8.059-18-18-18S6 14.059 6 24s8.059 18 18 18c3.025 0 5.876-.746 8.379-2.065z" />
  <path d="M13.743 23.35c-.12.738.381 1.445 1.064 1.883.714.457 1.732.707 2.93.53a3.8 3.8 0 0 0 2.654-1.665c.504-.764.711-1.693.48-2.382a.5.5 0 0 0-.818-.203c-1.796 1.704-3.824 2.123-5.642 1.448a.5.5 0 0 0-.668.39" />
  <path d="M33.819 23.35c.119.738-.382 1.445-1.065 1.883-.714.457-1.731.707-2.93.53a3.8 3.8 0 0 1-2.653-1.665c-.504-.764-.712-1.693-.48-2.382a.5.5 0 0 1 .818-.203c1.796 1.704 3.824 2.123 5.642 1.448a.5.5 0 0 1 .668.39" />
  <path
    fill-rule="evenodd"
    d="M36 36a4 4 0 0 0 4-4c0-3.5-4-7-4-7s-4 3.5-4 7a4 4 0 0 0 4 4m0-2a2 2 0 0 0 2-2c0-1.066-.654-2.37-1.59-3.6q-.207-.27-.41-.512-.203.241-.41.512C34.655 29.63 34 30.934 34 32a2 2 0 0 0 2 2"
    clip-rule="evenodd"
  />
  <path d="M20.8 33.6c1.6-2.133 4.8-2.133 6.4 0a1 1 0 0 0 1.6-1.2c-2.4-3.2-7.2-3.2-9.6 0a1 1 0 0 0 1.6 1.2" />
</svg>
